X: 29476
T: Night We Had The Port, The
R: slide
M: 12/8
K: Aminor
A3 ABc B2A G2d|e2A cde d2F Ace|f3 fed e2c A2c|B3 cBG EGc BAG|
A3 ABc B2A G2d|e2A cde d2F Ace|f3 fed e2c A2c|d3 dcA B3 cde|
f3 fed e2c A2c|B3 cBG Ace gag|f3 fed e2c A2c|B3 bge dcB Ace|
f3 fed e2c A2c|B3 cBG Ace gag|f3 fed e2c A2c|B3 EGc BAG e3|

